public/style/workarea/images/icons/exe-delete-icon-red.svg

<svg fill="none" height="20" viewBox="0 0 21 20" width="21" xmlns="http://www.w3.org/2000/svg"><g stroke="#c64143" stroke-linecap="round" stroke-linejoin="round" stroke-width="1.5"><path d="m2.81885 5h1.66666 13.33329"/><path d="m6.9856 5.00002v-1.66667c0-.44202.17559-.86595.48815-1.17851s.73648-.48815 1.17851-.48815h3.33334c.442 0 .8659.17559 1.1785.48815s.4882.73649.4882 1.17851v1.66667m2.5 0v11.66668c0 .442-.1756.8659-.4882 1.1785s-.7365.4882-1.1785.4882h-8.33334c-.44203 0-.86595-.1756-1.17851-.4882s-.48815-.7365-.48815-1.1785v-11.66668z"/><path d="m11.9856 9.16669v5.00001"/><path d="m8.6521 9.16669v5.00001"/></g></svg>

<svg width="21" height="20" viewBox="0 0 21 20" fill="none" xmlns="http://www.w3.org/2000/svg">
<path d="M2.81885 5H4.48551H17.8188" stroke="#C64143" stroke-width="1.5" stroke-linecap="round" stroke-linejoin="round"/>
<path d="M6.9856 5.00002V3.33335C6.9856 2.89133 7.16119 2.4674 7.47375 2.15484C7.78631 1.84228 8.21023 1.66669 8.65226 1.66669H11.9856C12.4276 1.66669 12.8515 1.84228 13.1641 2.15484C13.4767 2.4674 13.6523 2.89133 13.6523 3.33335V5.00002M16.1523 5.00002V16.6667C16.1523 17.1087 15.9767 17.5326 15.6641 17.8452C15.3515 18.1578 14.9276 18.3334 14.4856 18.3334H6.15226C5.71023 18.3334 5.28631 18.1578 4.97375 17.8452C4.66119 17.5326 4.4856 17.1087 4.4856 16.6667V5.00002H16.1523Z" stroke="#C64143" stroke-width="1.5" stroke-linecap="round" stroke-linejoin="round"/>
<path d="M11.9856 9.16669V14.1667" stroke="#C64143" stroke-width="1.5" stroke-linecap="round" stroke-linejoin="round"/>
<path d="M8.6521 9.16669V14.1667" stroke="#C64143" stroke-width="1.5" stroke-linecap="round" stroke-linejoin="round"/>
</svg>
